src/images/brand-icon-discord.svg

<?xml version="1.0" encoding="UTF-8"?>
<!DOCTYPE svg  PUBLIC '-//W3C//DTD SVG 1.1//EN'  'http://www.w3.org/Graphics/SVG/1.1/DTD/svg11.dtd'>
<svg version="1.1" viewBox="0 0 109 127" xml:space="preserve" xmlns="http://www.w3.org/2000/svg">
    <g transform="translate(-486.54 -11516)">
        <g transform="matrix(1 0 0 9.2051 0 1353.8)">
            <g transform="matrix(6.0054 0 0 .6524 468.53 1102.6)">
                <path d="m10.076 11c0.6 0 1.086 0.45 1.075 1 0 0.55-0.474 1-1.075 1-0.59 0-1.076-0.45-1.076-1s0.475-1 1.076-1zm3.848 0c0.601 0 1.076 0.45 1.076 1s-0.475 1-1.076 1c-0.59 0-1.075-0.45-1.075-1s0.474-1 1.075-1zm4.967-9c1.163 0 2.109 0.966 2.109 2.163v18.837l-2.211-1.995-1.245-1.176-1.317-1.25 0.546 1.943h-11.664c-1.163 0-2.109-0.966-2.109-2.163v-14.196c0-1.197 0.946-2.163 2.109-2.163h13.782zm-3.97 13.713c2.273-0.073 3.148-1.596 3.148-1.596 0-3.381-1.482-6.122-1.482-6.122-1.48-1.133-2.89-1.102-2.89-1.102l-0.144 0.168c1.749 0.546 2.561 1.334 2.561 1.334-0.955-0.538-2.007-0.881-3.096-1.008-0.691-0.078-1.388-0.071-2.077 0.02-0.062 0-0.114 0.011-0.175 0.021-0.36 0.032-1.235 0.168-2.335 0.662-0.38 0.178-0.607 0.305-0.607 0.305s0.854-0.83 2.705-1.376l-0.103-0.126s-1.409-0.031-2.89 1.103c0 0-1.481 2.74-1.481 6.121 0 0 0.864 1.522 3.137 1.596 0 0 0.38-0.472 0.69-0.871-1.307-0.4-1.8-1.24-1.8-1.24s0.102 0.074 0.287 0.179c0.01 0.01 0.02 0.021 0.041 0.031 0.031 0.022 0.062 0.032 0.093 0.053 0.257 0.147 0.514 0.262 0.75 0.357 0.422 0.168 0.926 0.336 1.513 0.452 0.879 0.172 1.783 0.176 2.664 0.01 0.513-0.092 1.013-0.243 1.491-0.451 0.36-0.137 0.761-0.337 1.183-0.62 0 0-0.514 0.861-1.862 1.25 0.309 0.399 0.68 0.85 0.68 0.85h-1e-3z"/>
            </g>
        </g>
    </g>
</svg>

<?xml version="1.0" encoding="UTF-8" standalone="no"?>
<!DOCTYPE svg PUBLIC "-//W3C//DTD SVG 1.1//EN" "http://www.w3.org/Graphics/SVG/1.1/DTD/svg11.dtd">
<svg width="100%" height="100%" viewBox="0 0 109 127" version="1.1" xmlns="http://www.w3.org/2000/svg" xmlns:xlink="http://www.w3.org/1999/xlink" xml:space="preserve" >
    <g transform="matrix(1,0,0,1,-486.545,-11515.8)">
        <g transform="matrix(1,0,0,9.20507,0,1353.83)">
            <g transform="matrix(6.00537,0,0,0.652398,468.529,1102.65)">
                <path d="M10.076,11C10.676,11 11.162,11.45 11.151,12C11.151,12.55 10.677,13 10.076,13C9.486,13 9,12.55 9,12C9,11.45 9.475,11 10.076,11ZM13.924,11C14.525,11 15,11.45 15,12C15,12.55 14.525,13 13.924,13C13.334,13 12.849,12.55 12.849,12C12.849,11.45 13.323,11 13.924,11ZM18.891,2C20.054,2 21,2.966 21,4.163L21,23L18.789,21.005L17.544,19.829L16.227,18.579L16.773,20.522L5.109,20.522C3.946,20.522 3,19.556 3,18.359L3,4.163C3,2.966 3.946,2 5.109,2L18.891,2ZM14.921,15.713C17.194,15.64 18.069,14.117 18.069,14.117C18.069,10.736 16.587,7.995 16.587,7.995C15.107,6.862 13.697,6.893 13.697,6.893L13.553,7.061C15.302,7.607 16.114,8.395 16.114,8.395C15.159,7.857 14.107,7.514 13.018,7.387C12.327,7.309 11.63,7.316 10.941,7.407C10.879,7.407 10.827,7.418 10.766,7.428C10.406,7.46 9.531,7.596 8.431,8.09C8.051,8.268 7.824,8.395 7.824,8.395C7.824,8.395 8.678,7.565 10.529,7.019L10.426,6.893C10.426,6.893 9.017,6.862 7.536,7.996C7.536,7.996 6.055,10.736 6.055,14.117C6.055,14.117 6.919,15.639 9.192,15.713C9.192,15.713 9.572,15.241 9.882,14.842C8.575,14.442 8.082,13.602 8.082,13.602C8.082,13.602 8.184,13.676 8.369,13.781C8.379,13.791 8.389,13.802 8.41,13.812C8.441,13.834 8.472,13.844 8.503,13.865C8.76,14.012 9.017,14.127 9.253,14.222C9.675,14.39 10.179,14.558 10.766,14.674C11.645,14.846 12.549,14.85 13.43,14.684C13.943,14.592 14.443,14.441 14.921,14.233C15.281,14.096 15.682,13.896 16.104,13.613C16.104,13.613 15.59,14.474 14.242,14.863C14.551,15.262 14.922,15.713 14.922,15.713L14.921,15.713Z"/>
            </g>
        </g>
    </g>
</svg>
